Sources/FrostedUI/Resources/Icons.xcassets/upinTiltedFilled12.imageset/upin-tilted-filled-12.svg

<svg width="12" height="12" viewBox="0 0 12 12" fill="none" xmlns="http://www.w3.org/2000/svg" data-fui-icon="true">
  <path
    d="M0.219727 0.219727C0.51262 -0.0731667 0.98738 -0.0731667 1.28027 0.219727L11.7803 10.7197C12.0732 11.0126 12.0732 11.4874 11.7803 11.7803C11.4874 12.0732 11.0126 12.0732 10.7197 11.7803L8.58038 9.64092C8.46911 9.52965 8.27897 9.58259 8.24121 9.73535C7.9113 11.055 6.26752 11.5106 5.30566 10.5488L4.11552 9.35785C3.99835 9.2406 3.80829 9.2406 3.69111 9.35784L2.3125 10.7373C2.01967 11.0299 1.54479 11.0299 1.25195 10.7373C0.95906 10.4444 0.95906 9.96867 1.25195 9.67578L2.63064 8.29709C2.7478 8.17994 2.7478 7.98999 2.63064 7.87283L1.44043 6.68262C0.4787 5.7208 0.933429 4.07707 2.25293 3.74707C2.40556 3.7088 2.45815 3.5187 2.34688 3.40743L0.219727 1.28027C-0.0731667 0.98738 -0.0731667 0.51262 0.219727 0.219727ZM6.37793 1.36816C7.06137 0.684991 8.17018 0.684828 8.85352 1.36816L10.6211 3.13574C11.3043 3.81908 11.3042 4.92696 10.6211 5.61035L9.90842 6.32302C9.79126 6.44018 9.60131 6.44018 9.48416 6.32302L5.66537 2.50424C5.54817 2.38703 5.54822 2.197 5.66548 2.07986L6.37793 1.36816Z"
    fill="currentColor"
  />
</svg>

<svg xmlns="http://www.w3.org/2000/svg" width="12" height="12" fill="none" data-fui-icon="true" viewBox="0 0 12 12"><path fill="currentColor" d="M.22.22a.75.75 0 0 1 1.06 0l10.5 10.5a.75.75 0 1 1-1.06 1.06L8.58 9.64a.202.202 0 0 0-.339.095c-.33 1.32-1.973 1.776-2.935.814l-1.19-1.191a.3.3 0 0 0-.425 0l-1.378 1.38a.75.75 0 0 1-1.061-1.062l1.379-1.379a.3.3 0 0 0 0-.424l-1.19-1.19c-.962-.962-.508-2.606.812-2.936a.203.203 0 0 0 .094-.34L.22 1.28a.75.75 0 0 1 0-1.06m6.158 1.148a1.75 1.75 0 0 1 2.476 0l1.767 1.768a1.75 1.75 0 0 1 0 2.474l-.713.713a.3.3 0 0 1-.424 0L5.665 2.504a.3.3 0 0 1 0-.424z"/></svg>
